SVG-Logos/Software/Webex-cisco-stacked.svg

<svg width="120" height="30" viewBox="0 0 120 30" fill="none" xmlns="http://www.w3.org/2000/svg">
<g clip-path="url(#clip0)">
<path d="M18.6021 5.47357H21.528L17.2739 18.3324H13.9174L10.7379 8.62892L7.55836 18.3324H4.25409L0 5.47357H2.99437L6.01288 15.2455L9.1803 5.47357H12.3598L15.5796 15.2978L18.6021 5.47357Z" fill="black"/>
<path d="M34.0763 12.9353H24.5861C24.6737 13.5984 24.9224 14.2299 25.3106 14.7746C25.6544 15.2512 26.1201 15.6266 26.6588 15.8613C27.2075 16.0983 27.7998 16.2176 28.3975 16.2114C29.06 16.2089 29.7168 16.089 30.3374 15.8573C30.9808 15.622 31.5817 15.2835 32.1163 14.8551L33.5129 16.8675C32.8007 17.4884 31.9714 17.9605 31.0739 18.256C30.1521 18.5453 29.1905 18.6879 28.2244 18.6786C27.0345 18.702 25.8592 18.4134 24.8155 17.8414C23.8283 17.2882 23.0198 16.4643 22.4852 15.4669C21.9102 14.3736 21.6222 13.1521 21.6481 11.9171C21.6234 10.6937 21.8998 9.48296 22.453 8.39148C22.967 7.3987 23.7511 6.57137 24.7149 6.00484C25.7261 5.42289 26.8769 5.12788 28.0433 5.15161C29.1441 5.12115 30.2302 5.40866 31.1718 5.97971C32.1133 6.55076 32.8702 7.38113 33.3519 8.37135C33.8836 9.4664 34.1484 10.6718 34.1246 11.8889C34.1286 12.1586 34.1125 12.5087 34.0763 12.9353ZM31.259 10.8023C31.1725 9.921 30.7944 9.09381 30.1844 8.45185C29.8921 8.17782 29.5476 7.96536 29.1715 7.82708C28.7953 7.68881 28.3953 7.62754 27.995 7.64691C27.5737 7.62762 27.1528 7.69322 26.7573 7.83979C26.3619 7.98636 25.9999 8.21093 25.6929 8.50014C25.0851 9.13269 24.697 9.94411 24.5861 10.8143L31.259 10.8023Z" fill="black"/>
<path d="M46.0823 6.01288C47.0613 6.59198 47.8641 7.42679 48.4045 8.42769C48.9824 9.49448 49.2762 10.6919 49.2578 11.905C49.2762 13.1168 48.9824 14.313 48.4045 15.3783C47.864 16.3838 47.0582 17.222 46.0748 17.8017C45.0913 18.3814 43.9678 18.6805 42.8263 18.6665C42.0253 18.6833 41.2309 18.5167 40.5041 18.1795C39.838 17.8583 39.2553 17.3872 38.8017 16.8031V18.3324H35.9844V0H38.8017V7.00295C39.2572 6.4228 39.8396 5.9547 40.5041 5.63456C41.23 5.29404 42.0248 5.12599 42.8263 5.14355C43.9708 5.12954 45.0971 5.43027 46.0823 6.01288ZM44.5449 15.4749C45.1292 15.1157 45.5996 14.5979 45.9012 13.9818C46.2108 13.3325 46.3715 12.6223 46.3715 11.903C46.3715 11.1837 46.2108 10.4735 45.9012 9.82425C45.5983 9.20902 45.1283 8.69154 44.5449 8.3311C43.9248 7.97635 43.2228 7.78974 42.5084 7.78974C41.794 7.78974 41.092 7.97635 40.4719 8.3311C39.887 8.68627 39.413 9.19787 39.1035 9.80816C38.7687 10.46 38.6001 11.1844 38.6125 11.9171C38.5997 12.6485 38.7684 13.3717 39.1035 14.022C39.413 14.6323 39.887 15.1439 40.4719 15.4991C41.092 15.8538 41.794 16.0404 42.5084 16.0404C43.2228 16.0404 43.9248 15.8538 44.5449 15.4991V15.4749Z" fill="black"/>
<path d="M63.1602 12.9353H53.674C53.7616 13.5984 54.0103 14.2299 54.3985 14.7746C54.7423 15.2512 55.208 15.6265 55.7467 15.8613C56.2954 16.0983 56.8877 16.2175 57.4854 16.2114C58.1478 16.2083 58.8045 16.0884 59.4253 15.8572C60.0687 15.622 60.6696 15.2835 61.2042 14.8551L62.5967 16.8674C61.8866 17.4892 61.0585 17.9614 60.1618 18.2559C59.2386 18.5451 58.2757 18.6877 57.3083 18.6785C56.1185 18.7007 54.9436 18.4121 53.8994 17.8414C52.9142 17.2869 52.1073 16.4632 51.5731 15.4668C50.9969 14.3738 50.7074 13.1524 50.732 11.9171C50.7075 10.6937 50.9839 9.48298 51.5369 8.39144C52.0509 7.39867 52.835 6.57134 53.7988 6.00481C54.8158 5.41436 55.9756 5.11501 57.1513 5.1395C58.2518 5.11054 59.3373 5.39868 60.2786 5.96956C61.2198 6.54044 61.977 7.36997 62.4599 8.35925C62.9917 9.45429 63.2565 10.6597 63.2326 11.8768C63.2165 12.1585 63.1884 12.5087 63.1602 12.9353ZM60.3429 10.8022C60.2501 9.92663 59.8709 9.10611 59.2643 8.46791C58.9739 8.19237 58.6313 7.97777 58.2567 7.83676C57.882 7.69575 57.4829 7.63119 57.0829 7.64688C56.6616 7.62713 56.2405 7.69251 55.845 7.83911C55.4494 7.9857 55.0875 8.21051 54.7808 8.50011C54.1715 9.13166 53.7832 9.94358 53.674 10.8143L60.3429 10.8022Z" fill="black"/>
<path d="M76.5413 18.3324H73.0921L69.8321 13.861L66.6124 18.3324H63.3242L68.1538 11.7682L63.4007 5.47357H66.8539L69.9931 9.76791L73.1324 5.47357H76.4688L71.6956 11.744L76.5413 18.3324Z" fill="black"/>
<path d="M49.8219 28.8892H49.3711V24.7921H49.9064V26.3416C50.0151 26.1811 50.1633 26.0513 50.3367 25.9646C50.5101 25.8779 50.7028 25.8373 50.8964 25.8465C51.0913 25.831 51.2869 25.8645 51.4654 25.9439C51.644 26.0234 51.7998 26.1462 51.9187 26.3013C52.1413 26.6186 52.2517 27.0009 52.2326 27.388C52.2447 27.6074 52.2132 27.8271 52.14 28.0343C52.0667 28.2415 51.9533 28.4322 51.806 28.5954C51.6857 28.7146 51.5422 28.8079 51.3843 28.8695C51.2265 28.9312 51.0577 28.9598 50.8884 28.9536C50.6993 28.9694 50.5094 28.9357 50.3373 28.856C50.1651 28.7763 50.0166 28.6532 49.9064 28.4988L49.8219 28.8892ZM51.641 27.3679C51.6525 27.2169 51.6338 27.0651 51.5862 26.9214C51.5385 26.7777 51.4627 26.6449 51.3633 26.5307C51.2865 26.4566 51.1957 26.3985 51.0962 26.3598C50.9967 26.3211 50.8905 26.3026 50.7838 26.3053C50.6578 26.3004 50.5324 26.3252 50.4178 26.3776C50.3031 26.4301 50.2024 26.5087 50.1237 26.6072C49.9649 26.8277 49.8881 27.0967 49.9064 27.3679C49.8842 27.6825 49.9836 27.9937 50.1841 28.2372C50.2616 28.3231 50.3567 28.3913 50.463 28.4372C50.5693 28.483 50.6842 28.5054 50.7999 28.5028C50.9256 28.5095 51.051 28.4843 51.1643 28.4294C51.2776 28.3745 51.3752 28.2917 51.4478 28.1889C51.5966 27.9422 51.6641 27.655 51.641 27.3679V27.3679Z" fill="black"/>
<path d="M55.1376 25.931L54.1073 28.9294C54.021 29.2191 53.8848 29.4915 53.7048 29.7344C53.6347 29.8181 53.5464 29.8848 53.4467 29.9295C53.347 29.9741 53.2385 29.9954 53.1293 29.9919C53.0108 29.9895 52.8931 29.9719 52.7791 29.9396V29.4969C52.8709 29.5224 52.9656 29.536 53.0609 29.5371C53.1132 29.5406 53.1656 29.5309 53.2134 29.5092C53.2611 29.4874 53.3028 29.4542 53.3345 29.4124C53.4393 29.2468 53.5218 29.0682 53.58 28.8811H53.403L52.3203 25.931H52.9119L53.7491 28.4465L54.5862 25.931H55.1376Z" fill="black"/>
<path d="M62.7843 24.8001H61.75V28.9053H62.7843V24.8001Z" fill="black"/>
<path d="M71.1205 25.9753C70.8549 25.8273 70.5553 25.751 70.2512 25.754C70.1016 25.7449 69.9517 25.7665 69.8108 25.8175C69.6698 25.8686 69.5408 25.9479 69.4317 26.0506C69.3225 26.1533 69.2356 26.2773 69.1761 26.4149C69.1167 26.5525 69.086 26.7008 69.086 26.8507C69.086 27.0006 69.1167 27.1489 69.1761 27.2865C69.2356 27.4241 69.3225 27.548 69.4317 27.6508C69.5408 27.7535 69.6698 27.8328 69.8108 27.8838C69.9517 27.9348 70.1016 27.9565 70.2512 27.9474C70.5546 27.9486 70.8534 27.8739 71.1205 27.7301V28.8328C70.8139 28.9265 70.4953 28.9753 70.1747 28.9777C69.8876 28.9902 69.6009 28.9445 69.332 28.8432C69.063 28.7419 68.8174 28.5873 68.6098 28.3885C68.4022 28.1898 68.237 27.9511 68.1242 27.6868C68.0113 27.4225 67.9531 27.1381 67.9531 26.8507C67.9531 26.5633 68.0113 26.2789 68.1242 26.0146C68.237 25.7503 68.4022 25.5116 68.6098 25.3128C68.8174 25.1141 69.063 24.9594 69.332 24.8582C69.6009 24.7569 69.8876 24.7111 70.1747 24.7236C70.4957 24.725 70.8146 24.7752 71.1205 24.8725V25.9753Z" fill="black"/>
<path d="M60.3061 25.9753C60.0389 25.8275 59.7381 25.7512 59.4327 25.754C59.2831 25.7449 59.1332 25.7665 58.9923 25.8175C58.8514 25.8686 58.7223 25.9479 58.6132 26.0506C58.504 26.1533 58.4171 26.2773 58.3576 26.4149C58.2982 26.5525 58.2675 26.7008 58.2675 26.8507C58.2675 27.0006 58.2982 27.1489 58.3576 27.2865C58.4171 27.4241 58.504 27.548 58.6132 27.6508C58.7223 27.7535 58.8514 27.8328 58.9923 27.8838C59.1332 27.9348 59.2831 27.9565 59.4327 27.9474C59.7374 27.9489 60.0376 27.8742 60.3061 27.7301V28.8328C59.9995 28.9265 59.6809 28.9753 59.3603 28.9777C59.0732 28.9902 58.7865 28.9445 58.5175 28.8432C58.2486 28.7419 58.0029 28.5873 57.7953 28.3885C57.5878 28.1898 57.4226 27.9511 57.3097 27.6868C57.1969 27.4225 57.1387 27.1381 57.1387 26.8507C57.1387 26.5633 57.1969 26.2789 57.3097 26.0146C57.4226 25.7503 57.5878 25.5116 57.7953 25.3128C58.0029 25.1141 58.2486 24.9594 58.5175 24.8582C58.7865 24.7569 59.0732 24.7111 59.3603 24.7236C59.6813 24.725 60.0002 24.7752 60.3061 24.8725V25.9753Z" fill="black"/>
<path d="M74.3798 25.758C74.165 25.7556 73.9543 25.8171 73.7746 25.9348C73.5949 26.0525 73.4543 26.221 73.3706 26.4188C73.2869 26.6166 73.264 26.8349 73.3047 27.0458C73.3454 27.2567 73.448 27.4508 73.5993 27.6032C73.7506 27.7557 73.9439 27.8597 74.1545 27.902C74.3651 27.9443 74.5835 27.923 74.782 27.8408C74.9804 27.7586 75.15 27.6192 75.269 27.4404C75.388 27.2616 75.4511 27.0514 75.4504 26.8366C75.4531 26.6949 75.4273 26.5541 75.3745 26.4225C75.3218 26.291 75.2432 26.1713 75.1433 26.0707C75.0435 25.9701 74.9244 25.8906 74.7933 25.8369C74.6621 25.7832 74.5215 25.7563 74.3798 25.758V25.758ZM76.5491 26.8366C76.5579 27.2674 76.4382 27.6911 76.2052 28.0536C75.9723 28.4161 75.6366 28.7011 75.2411 28.8721C74.8456 29.0431 74.4081 29.0924 73.9844 29.0137C73.5607 28.9351 73.17 28.7321 72.8622 28.4305C72.5544 28.129 72.3433 27.7426 72.256 27.3206C72.1686 26.8987 72.2089 26.4602 72.3717 26.0613C72.5345 25.6623 72.8125 25.3208 73.1701 25.0805C73.5278 24.8401 73.9489 24.7116 74.3798 24.7116C74.6631 24.7034 74.9452 24.7525 75.2092 24.8559C75.4731 24.9592 75.7135 25.1147 75.916 25.3131C76.1185 25.5115 76.2789 25.7486 76.3877 26.0104C76.4965 26.2721 76.5514 26.5531 76.5491 26.8366Z" fill="black"/>
<path d="M66.6938 25.7298C66.4311 25.6576 66.161 25.6157 65.8888 25.605C65.4864 25.605 65.2489 25.7459 65.2489 25.9431C65.2489 26.1403 65.5548 26.2812 65.7238 26.3456L66.0096 26.4381C66.2805 26.495 66.5243 26.6415 66.7018 26.854C66.8792 27.0665 66.9799 27.3326 66.9876 27.6093C66.9876 28.6437 66.082 28.9898 65.2891 28.9898C64.9135 28.9869 64.5389 28.9492 64.1703 28.8771V27.9192C64.4883 28.0121 64.8171 28.0635 65.1483 28.0722C65.6634 28.0722 65.9009 27.9232 65.9009 27.6697C65.9009 27.4161 65.6956 27.3397 65.438 27.2672L65.2167 27.1988C64.6412 27.0137 64.1582 26.6756 64.1582 25.9914C64.1582 25.2227 64.7337 24.7075 65.6916 24.7075C66.031 24.7121 66.3688 24.7567 66.6978 24.8403L66.6938 25.7298Z" fill="black"/>
</g>
<defs>
<clipPath id="clip0">
<rect width="76.5495" height="30" fill="white"/>
</clipPath>
</defs>
</svg>

<svg xmlns="http://www.w3.org/2000/svg" fill="none" viewBox="0 0 120 30"><g fill="#000" clip-path="url(#a)"><path d="M18.602 5.474h2.926l-4.254 12.858h-3.357l-3.18-9.703-3.179 9.703H4.254L0 5.474h2.994l3.019 9.771L9.18 5.474h3.18l3.22 9.824 3.022-9.824ZM34.076 12.935h-9.49c.088.663.336 1.295.725 1.84.343.476.81.852 1.348 1.086a4.273 4.273 0 0 0 1.739.35 5.607 5.607 0 0 0 1.94-.354 6.311 6.311 0 0 0 1.778-1.002l1.397 2.012a7.082 7.082 0 0 1-2.44 1.389 9.22 9.22 0 0 1-2.849.423 6.814 6.814 0 0 1-3.409-.838 5.937 5.937 0 0 1-2.33-2.374 7.298 7.298 0 0 1-.837-3.55 7.465 7.465 0 0 1 .805-3.526 5.932 5.932 0 0 1 2.262-2.386 6.411 6.411 0 0 1 3.328-.853 5.727 5.727 0 0 1 5.309 3.22c.532 1.094.796 2.3.773 3.517.004.27-.013.62-.049 1.046Zm-2.817-2.133a3.976 3.976 0 0 0-1.075-2.35 2.99 2.99 0 0 0-2.189-.805 3.147 3.147 0 0 0-2.302.853 4.086 4.086 0 0 0-1.107 2.314l6.673-.012ZM46.082 6.013a6.262 6.262 0 0 1 2.322 2.415 7.075 7.075 0 0 1 .854 3.477 7.06 7.06 0 0 1-.854 3.473 6.246 6.246 0 0 1-5.578 3.288 5.256 5.256 0 0 1-2.322-.486 4.79 4.79 0 0 1-1.702-1.377v1.53h-2.818V0h2.818v7.003a4.83 4.83 0 0 1 1.702-1.368 5.2 5.2 0 0 1 2.322-.491 6.246 6.246 0 0 1 3.256.869Zm-1.537 9.462a3.622 3.622 0 0 0 1.356-1.493 4.83 4.83 0 0 0 0-4.158 3.65 3.65 0 0 0-1.356-1.493 4.101 4.101 0 0 0-4.073 0 3.67 3.67 0 0 0-1.369 1.477 4.451 4.451 0 0 0-.49 2.11 4.426 4.426 0 0 0 .49 2.104 3.67 3.67 0 0 0 1.369 1.477 4.102 4.102 0 0 0 4.073 0v-.024ZM63.16 12.935h-9.486c.088.663.336 1.295.724 1.84.344.476.81.851 1.349 1.086a4.275 4.275 0 0 0 1.738.35 5.634 5.634 0 0 0 1.94-.354 6.309 6.309 0 0 0 1.78-1.002l1.392 2.012a7.022 7.022 0 0 1-2.435 1.389 9.251 9.251 0 0 1-2.854.422 6.842 6.842 0 0 1-3.409-.837 5.952 5.952 0 0 1-2.326-2.374 7.3 7.3 0 0 1-.841-3.55 7.47 7.47 0 0 1 .805-3.526 5.932 5.932 0 0 1 2.262-2.386 6.411 6.411 0 0 1 3.352-.865 5.74 5.74 0 0 1 5.309 3.22c.532 1.094.797 2.3.773 3.517-.016.281-.045.632-.073 1.058Zm-2.817-2.133a4 4 0 0 0-1.079-2.334 2.999 2.999 0 0 0-2.181-.821 3.14 3.14 0 0 0-2.302.853 4.06 4.06 0 0 0-1.107 2.314l6.669-.012ZM76.541 18.332h-3.449l-3.26-4.471-3.22 4.471h-3.288l4.83-6.564L63.4 5.474h3.453l3.14 4.294 3.138-4.294h3.337l-4.773 6.27 4.845 6.588ZM49.822 28.89h-.45v-4.098h.534v1.55a1.13 1.13 0 0 1 .99-.495 1.171 1.171 0 0 1 1.023.454c.222.318.333.7.314 1.087a1.665 1.665 0 0 1-.427 1.207 1.239 1.239 0 0 1-.918.359 1.095 1.095 0 0 1-.982-.455l-.084.39Zm1.819-1.522a1.144 1.144 0 0 0-.278-.837.805.805 0 0 0-.58-.226.805.805 0 0 0-.66.302c-.158.22-.235.49-.217.76-.022.316.078.627.278.87a.806.806 0 0 0 .616.266.745.745 0 0 0 .648-.314c.149-.247.216-.534.193-.821ZM55.138 25.931l-1.03 2.998c-.087.29-.223.563-.403.805a.722.722 0 0 1-.576.258 1.388 1.388 0 0 1-.35-.052v-.443a1.1 1.1 0 0 0 .282.04.318.318 0 0 0 .273-.125c.105-.165.188-.344.246-.53h-.177L52.32 25.93h.592l.837 2.515.837-2.515h.552ZM62.784 24.8H61.75v4.105h1.034V24.8ZM71.12 25.975a1.75 1.75 0 0 0-.869-.221 1.098 1.098 0 1 0 0 2.193c.304.002.602-.073.87-.217v1.103a3.321 3.321 0 0 1-.946.145 2.128 2.128 0 1 1 0-4.254c.32.001.64.051.946.148v1.103ZM60.306 25.975a1.77 1.77 0 0 0-.873-.221 1.098 1.098 0 1 0 0 2.193c.304.002.605-.073.873-.217v1.103a3.321 3.321 0 0 1-.946.145 2.129 2.129 0 1 1 0-4.254c.321.001.64.051.946.148v1.103ZM74.38 25.758a1.082 1.082 0 1 0 1.07 1.079 1.058 1.058 0 0 0-1.07-1.079Zm2.17 1.079a2.169 2.169 0 1 1-2.17-2.125 2.107 2.107 0 0 1 2.17 2.125ZM66.694 25.73a3.566 3.566 0 0 0-.805-.125c-.403 0-.64.14-.64.338 0 .197.306.338.475.403l.286.092a1.232 1.232 0 0 1 .978 1.171c0 1.035-.906 1.38-1.699 1.38a6.073 6.073 0 0 1-1.119-.112v-.958c.318.093.647.145.978.153.515 0 .753-.149.753-.402 0-.254-.205-.33-.463-.403l-.221-.068c-.576-.185-1.059-.523-1.059-1.208 0-.768.576-1.284 1.534-1.284.339.005.677.05 1.006.133l-.004.89Z"/></g><defs><clipPath id="a"><path fill="#fff" d="M0 0h76.549v30H0z"/></clipPath></defs></svg>
